icons/codescan-checkmark-15.svg

<svg width="15" height="15" viewBox="0 0 15 15" fill="none" xmlns="http://www.w3.org/2000/svg">
<path d="M9.63781 5.88781C9.9124 5.61322 9.9124 5.16803 9.63781 4.89344C9.36322 4.61885 8.91803 4.61885 8.64344 4.89344L5.85938 7.67751L4.95031 6.76844C4.67572 6.49385 4.23053 6.49385 3.95594 6.76844C3.68135 7.04303 3.68135 7.48822 3.95594 7.76281L5.36219 9.16906C5.63678 9.44365 6.08197 9.44365 6.35656 9.16906L9.63781 5.88781Z" fill="black"/>
<path fill-rule="evenodd" clip-rule="evenodd" d="M7.03125 14.0625C8.71964 14.0625 10.269 13.4674 11.4811 12.4755L13.7997 14.7941C14.0743 15.0686 14.5195 15.0686 14.7941 14.7941C15.0686 14.5195 15.0686 14.0743 14.7941 13.7997L12.4755 11.4811C13.4674 10.269 14.0625 8.71964 14.0625 7.03125C14.0625 3.148 10.9145 0 7.03125 0C3.148 0 0 3.148 0 7.03125C0 10.9145 3.148 14.0625 7.03125 14.0625ZM7.03125 1.40625C3.92465 1.40625 1.40625 3.92465 1.40625 7.03125C1.40625 10.1379 3.92465 12.6562 7.03125 12.6562C8.51474 12.6562 9.86409 12.082 10.8691 11.1436C10.9002 11.0875 10.9396 11.0348 10.9872 10.9872C11.0348 10.9396 11.0875 10.9002 11.1436 10.8691C12.082 9.86409 12.6562 8.51474 12.6562 7.03125C12.6562 3.92465 10.1379 1.40625 7.03125 1.40625Z" fill="black"/>
</svg>

<svg xmlns="http://www.w3.org/2000/svg" width="15" height="15" viewBox="0 0 15 15"><path d="M9.638 5.888a.703.703 0 10-.995-.995L5.86 7.678l-.909-.91a.703.703 0 10-.994.995l1.406 1.406c.275.275.72.275.995 0l3.28-3.281z"/><path fill-rule="evenodd" d="M7.031 14.063a7.002 7.002 0 004.45-1.588l2.319 2.32a.703.703 0 00.994-.995l-2.319-2.319a7.031 7.031 0 10-5.444 2.581zm0-12.657a5.625 5.625 0 103.838 9.738.703.703 0 01.275-.275 5.625 5.625 0 00-4.112-9.463z"/></svg>
